X:105
M:6/8
L:1/8
K:G
|: de=f fed | cde cBA | Bcd efg | BAG AFD | GAB cde | def gdB | ecA dBG | DEF G3 :|

